X: 2
T: Lochanside
Z: ceolachan
S: https://thesession.org/tunes/6479#setting18181
R: waltz
M: 3/4
L: 1/8
K: Dmaj
A2 |: d>e f2 fa | ge f2 d2 | a>f d2 d>e | f>d f2 e2 |e>d c2 ca | ge d2 A2 | e>f g2 gB | cA d2 d2:|d>f a2 a>g | f>g a2 f2 | dA B2 g>f | ed f2 e2 |e>d c2 ca | ge d2 A2 | e>f g2 gB | cA d2 d2 :|c>B A2 Ac | eg f2 d2 | c>B A2 Ac | e<a f2 eA |d>f a2 fa | g/>f/e/>d/ c2 B2 | e>f g2 gB | cA d2 d2 :|
